X:20
T: Luegere-Juiz  Bb (trad.)
T:Dirigenten-Notiz, Edi Gasser. 
C:Unterwalden (CH)
C:
%%partsbox
M:2/4
%Q:1/4=110
R:Naturjuiz
L:1/4
K:Bb
[P:A]  B/F/F | d/F/F | d/c/B | A/F/F | 3e/F/ F/e/ | c>B | A/F/F | 
e/F/F | e/d/c | B/F/F | d/F/ F/d/ | !fermata!B2 | B/F/F | d/F/F | 
d/c/B | A/F/F | e/F/ F/e/ | c>B | A/F/F | e/F/F | e/"rit."d/c | !fermata!B2 || 
[P:B] F =E/F/ | Ge | df | c/e/ d/c/ | B/F/F | d/F/F | d/c/B | A/F/F | 
e/F/F | cd/c/ | B/F/F | d/F/ F/d/ | !fermata!B2 | F =E/F/ | Ge | df | 
c/e/ d/c/ | B/F/F | d/F/F | d/c/B | A/F/F | e/F/F | "rit."c d/c/ | !fermata!B2 || 
T:Teil A (neuere, melodisch reichere Fassung)
[P:A] B/D/F | d/F/F | f/d/ B/d/ | c/e/F | e/F/ F/e/ | c>B | A/c/F | e/F/F | f/e/ c/d/ | B/D/F | d/F/ F/d/ | B2 | 
B/D/F | d/F/F | f/d/ B/d/ | c/e/F | e/F/ F/e/ | c>B | A/c/F | e/F/F | f/e/ c/d/ | B2 |] 
W: Parts: A-B-A-B
W:
W: "Luegere": Holzhütte am Nordhang des Stanserhorns.
W:
W: UJV-Naturjodelsammlung: Code-Nr: 00-09
W:http://www.naturjodler.ch/tradition-1.htm  (with AUDIO)
%April 21, 2018

